!!!!SEGMENT: Ver3026-Madonna_io_vamo_et_taccio.krn
!!!id: Ver3026
!!!AGN: Madrigal
!!!SCT: Slim (1972)
!!!voices: 5
!!!COM: Philippe Verdelot
!!!OTL: Madonna, io v'amo et taccio
**kern	**kern	**kern	**kern	**kern
*part5	*part4	*part3	*part2	*part1
*staff5	*staff4	*staff3	*staff2	*staff1
*I"Bassus	*I"Tenor II	*I"Tenor I	*I"Altus	*I"Superius
*I'B	*I'T. II	*I'T. I	*I'A	*I'S
*clefF4	*clefGv2	*clefGv2	*clefGv2	*clefG2
*k[b-]	*k[b-]	*k[b-]	*k[b-]	*k[b-]
*F:	*F:	*F:	*F:	*F:
*M2/1	*M2/1	*M2/1 	*M2/1	*M2/1
*met(C|)	*met(C|)	*met(C|)	*met(C|)	*met(C|)
=1	=1	=1	=1	=1
0r	1r	0r	2r	1r
.	.	.	2d	.
.	2r	.	1d	1a
.	2d	.	.	.
=2	=2	=2	=2	=2
0r	1d	1r	1G	0b-y
.	1G	2r	2r	.
.	.	2d	[2g	.
=3	=3	=3	=3	=3
1D	2r	1d	4g]	1a
.	.	.	8f#iL	.
.	.	.	8eJ	.
.	1d	.	2f#i	.
[1E-X	.	[1G	[1g	1r
.	4c	.	.	.
.	4B-y	.	.	.
=4	=4	=4	=4	=4
1E-]	1c	1G]	1g]	1r
1D	2d	1r	2f	1a
.	2A	.	2f	.
=5	=5	=5	=5	=5
0r	2c	0r	2e	2g
.	2d	.	2d	2f
.	1A	.	4c#i	1e
.	.	.	4Bni	.
.	.	.	2c#i	.
=6	=6	=6	=6	=6
0r	2D	1A	2d	1d
.	2D	.	2f	.
.	2E	2G	2e	2r
.	2F	2F	[2d	2d
=7	=7	=7	=7	=7
1r	1G	1E	4d]	2e
.	.	.	8c#iL	.
.	.	.	8BniJ	.
.	.	.	2c#i	2g
1D	1A	2D	1d	2g
.	.	2D	.	2f
=8	=8	=8	=8	=8
2C	0r	2E	2r	2g
2BB-y	.	2G	2G	2g
1AA	.	2G	2A	1r
.	.	2F#i	2c	.
=9	=9	=9	=9	=9
1GG	1d	1G	2c	2r
.	.	.	2Bni	2d
1r	2.c	1C	2c	2e
.	.	.	2e	2g
.	4B-y	.	.	.
=10	=10	=10	=10	=10
2r	2A	1D	1d	2g
2D	2A	.	.	2f#i
2E	2G	1r	1r	2g
2G	2d	.	.	2g
=11	=11	=11	=11	=11
2G	2.d	0r	2r	2r
2F	.	.	2A	2a
.	4c	.	.	.
2G	2B-y	.	2.d	2.b-y
2G	2G	.	.	.
.	.	.	4c	4a
=12	=12	=12	=12	=12
2r	2d	2r	2B-y	2g
2D	4d	2A	2A	2f
.	4d	.	.	.
2.G	2.e-X	2.B-y	1G	1g
4F	4d	4A	.	.
=13	=13	=13	=13	=13
2E	2c	2G	2r	1r
2D	2B-y	2F	2d	.
1C	2c	2G	2.e-i	[1g
.	2e-i	4C	.	.
.	.	4D	4d	.
=14	=14	=14	=14	=14
2r	2e-i	4E	2c	1g]
.	.	4F	.	.
2GG	2d	1G	2B-y	.
2C	1c	.	1e-i	1g
2C	.	2C	.	.
=15	=15	=15	=15	=15
1D	1.A	2F	1d	1f
.	.	2D	.	.
2AA	.	2.E	1c	2.e
2AA	2A	.	.	.
.	.	4F	.	4d
=16	=16	=16	=16	=16
2GG	2B-y	2G	2B-y	2e
2FF	2c	2A	2A	2.f
1BB-y	2d	1D	2F	.
.	.	.	.	4e
.	2B-y	.	2G	[2d
=17	=17	=17	=17	=17
1AA	4c	1E	0A	2d]
.	4B-y	.	.	.
.	4A	.	.	2c#i
.	4G	.	.	.
1D	2F	[1D	.	1d
.	2F	.	.	.
=18	=18	=18	=18	=18
2r	2D	1D]	1d	2r
2D	2BB-y	.	.	2d
2BB-y	1B-y	2r	2d	2f
2GG	.	2D	2d	2g
=19	=19	=19	=19	=19
2D	2A	2F	1.d	2a
2GG	1G	2G	.	2.b-y
1D	.	2A	.	.
.	.	.	.	4a
.	2F#i	2A	2d	[2a
=20	=20	=20	=20	=20
1GG	1G	1B-y	2.d	2a]
.	.	.	.	2g
.	.	.	4e	.
1D	2r	1A	[1f	1a
.	2F	.	.	.
=21	=21	=21	=21	=21
2r	2D	1r	1f]	2r
2D	2BB-y	.	.	2d
2BB-y	1B-y	2r	1d	2f
2GG	.	2D	.	2g
=22	=22	=22	=22	=22
2D	2A	2F	2d	2a
2GG	1G	2G	2d	2.b-y
1D	.	2A	2d	.
.	.	.	.	4a
.	2F#i	2A	2d	[2a
=23	=23	=23	=23	=23
1GG	1G	1B-y	2.d	2a]
.	.	.	.	2g
.	.	.	4e	.
1r	1F	1A	1f	[1a
=24	=24	=24	=24	=24
1D	2r	2r	2r	1a]
.	2A	2d	2f	.
2D	2B-y	2d	2f	1r
2D	2A	2d	2f	.
=25	=25	=25	=25	=25
2BB-y	2B-y	2d	2d	1r
2C	2G	2c	2e	.
[1D	2F	[1A	2f	2r
.	2F	.	2d	2a
=26	=26	=26	=26	=26
1D]	2F	1A]	2d	2a
.	2F	.	2f	2a
2r	2B-y	2r	2d	2f
2G	2B-y	2B-y	2e	2g
=27	=27	=27	=27	=27
2F	1A	2c	1f	1a
2D	.	2d	.	.
1E	1r	1G	2r	1r
.	.	.	2g	.
=28	=28	=28	=28	=28
1D	1d	1A	2f	2r
.	.	.	2d	2f
1r	2c	1r	1e	2g
.	2A	.	.	[2a
=29	=29	=29	=29	=29
1G	1B-y	2r	1d	4a]
.	.	.	.	8gL
.	.	.	.	8fJ
.	.	2B-y	.	2g
2F	2A	2c	1f	2a
2D	2F	2d	.	[2b-y
=30	=30	=30	=30	=30
1E-X	2B-y	1G	2g	4b-]
.	.	.	.	4a
.	2c	.	2e-X	1g
1D	[1d	1A	4f	.
.	.	.	4e-i	.
.	.	.	4d	2f#i
.	.	.	4c	.
=31	=31	=31	=31	=31
0GG	1d]	0G	1B-y	1g
.	1B-y	.	2r	2r
.	.	.	2d	2g
=32	=32	=32	=32	=32
0r	0r	0r	2e-i	2g
.	.	.	2d	2f
.	.	.	2.e-i	2g
.	.	.	.	[2b-y
.	.	.	4d	.
=33	=33	=33	=33	=33
1r	2r	1r	1c	4b-]
.	.	.	.	8aL
.	.	.	.	8gJ
.	2F	.	.	2a
2r	2G	2r	1B-y	[1b-y
2BB-y	[2B-y	2F	.	.
=34	=34	=34	=34	=34
2E-i	4B-]	2G	0r	1b-]
.	4c	.	.	.
2D	2d	2F	.	.
2.E-i	2c	2G	.	1r
.	2B-y	[2B-y	.	.
4D	.	.	.	.
=35	=35	=35	=35	=35
1C	1c	4B-]	2r	1r
.	.	8AL	.	.
.	.	8GJ	.	.
.	.	2A	2e-i	.
1BB-y	[1F	1B-y	2d	2r
.	.	.	2B-y	2b-y
=36	=36	=36	=36	=36
0r	1F]	0r	2c	2a
.	.	.	2d	2f
.	1r	.	2e-i	2g
.	.	.	4d	2a
.	.	.	4c	.
=37	=37	=37	=37	=37
0r	0r	1r	2B-y	2b-y
.	.	.	2c	4a
.	.	.	.	4g
.	.	2r	2d	2f
.	.	2B-y	[2f	2d
=38	=38	=38	=38	=38
0r	0r	2A	4f]	2f
.	.	.	4e	.
.	.	2F	1d	2f
.	.	2G	.	1e
.	.	2A	2c#i	.
=39	=39	=39	=39	=39
2r	1r	2.B-y	1d	1d
2B-y	.	.	.	.
.	.	8A	.	.
.	.	8G	.	.
2A	2r	2F	1r	1r
2F	2f	2F	.	.
=40	=40	=40	=40	=40
2G	2e	2B-y	0r	0r
2A	2c	2A	.	.
1B-y	2d	1G	.	.
.	2e	.	.	.
=41	=41	=41	=41	=41
1BB-y	2f	2F	2r	0r
.	2F	2d	2B-y	.
2E-i	2G	2c	2c	.
2D	2F	[2B-y	2d	.
=42	=42	=42	=42	=42
1C	1E	4B-]	1e-i	1r
.	.	8AL	.	.
.	.	8GJ	.	.
.	.	2A	.	.
2BB-y	[1F	2B-y	2d	1dd
2BB-y	.	2B-y	2f	.
=43	=43	=43	=43	=43
2AA	1F]	2c	2f	2cc
2BB-y	.	2d	2f	2.b-y
1F	2r	1c	1f	.
.	.	.	.	8aL
.	.	.	.	8gJ
.	2c	.	.	2a
=44	=44	=44	=44	=44
0BB-y	2d	0B-y	1f	1b-y
.	2d	.	.	.
.	1d	.	2r	2r
.	.	.	2f	2b-y
=45	=45	=45	=45	=45
2r	1B-y	2r	2f	2b-y
2BB-y	.	2d	2f	2b-y
2BB-y	1r	2d	1f	1b-y
2BB-y	.	2d	.	.
=46	=46	=46	=46	=46
1F	2r	1c	2f	2a
.	1A	.	1f	1a
1D	.	1d	.	.
.	2F	.	2f	2a
=47	=47	=47	=47	=47
0r	2G	0r	2e	2.g
.	2G	.	1d	.
.	.	.	.	4f
.	1A	.	.	1e
.	.	.	2c#i	.
=48	=48	=48	=48	=48
2r	2D	2r	2d	1d
1D	1d	1A	1f	.
.	.	.	.	1r
2BB-y	2d	2B-y	2d	.
=49	=49	=49	=49	=49
2C	2.c	2A	2e	0r
2C	.	2.G	2e	.
.	4B-y	.	.	.
1D	1A	.	1d	.
.	.	8F#iL	.	.
.	.	8EJ	.	.
.	.	2F#i	.	.
=50	=50	=50	=50	=50
2GG	2G	2G	2d	2r
2GG	2D	2d	2g	2b-y
2BB-y	2D	2d	2f	2b-y
2BB-y	2D	2d	2f	2b-y
=51	=51	=51	=51	=51
2C	2E	2.c	1e	2a
2C	2E	.	.	2g
.	.	4B-y	.	.
2D	2.F	[1A	2d	2f
[2F	.	.	2c	[2a
.	4E	.	.	.
=52	=52	=52	=52	=52
4F]	0D	1A]	1.f	4a]
4E	.	.	.	4g
4D	.	.	.	4f
4C	.	.	.	4e
4BB-y	.	1B-y	.	4d
4C	.	.	.	4e
4D	.	.	2f	4f
4E	.	.	.	4g
=53	=53	=53	=53	=53
2F	1D	2A	1f	2a
2BB-y	.	2d	.	2b-y
2C	2E	2.c	1e	2a
2C	2E	.	.	[2g
.	.	4B-y	.	.
=54	=54	=54	=54	=54
1D	1F	1A	1d	2g]
.	.	.	.	2f#i
2GG	2D	2G	2r	2g
2GG	2D	2d	2g	2b-y
=55	=55	=55	=55	=55
2BB-y	2D	2d	2f	2b-y
2BB-y	2D	2d	2f	2b-y
2C	2E	2.c	1e	2a
2C	2E	.	.	2g
.	.	4B-y	.	.
=56	=56	=56	=56	=56
2D	2.F	0A	2d	2f
2.F	.	.	2c	2.a
.	4E	.	.	.
.	[1D	.	[1f	.
4E	.	.	.	4g
4D	.	.	.	4f
4C	.	.	.	4e
=57	=57	=57	=57	=57
4BB-y	1D]	1B-y	2f]	4d
4C	.	.	.	4e
4D	.	.	2f	4f
4E	.	.	.	4g
2F	1D	2A	1f	2a
2BB-y	.	2d	.	2b-y
=58	=58	=58	=58	=58
2C	2E	2.c	1e	2a
2C	2E	.	.	1g
.	.	4B-y	.	.
1D	1F	1A	1d	.
.	.	.	.	2f#i
=59	=59	=59	=59	=59
1GG	2E-X	[0Gl	1B-y	[0gl
.	2D	.	.	.
1C	1E-i	.	1c	.
=60	=60	=60	=60	=60
00GGl	00Dl	00G]	00B-yl	00g]
==	==	==	==	==
*-	*-	*-	*-	*-
!!!system-decoration: [*]
!!!RDF**kern: i = editorial accidental
!!!RDF**kern: l = terminal long
!!!ENC: Benjamin Ory
!!!END: 2021/4/16
!!!EED: Benjamin Ory
!!!EEV: 2021/04/29
!!!YEC: Copyright 2021 Benjamin Ory, All Rights Reserved
!!!ONB: Translated from MusicXML on 2021/04/29
